X: 1758
T: Sevdiğim Cemâlin Çünki Göremem
C: Mahmud Celâleddin Paşa
O: Turkey
F: http://compmusic.upf.edu/node/140
N: huseyni--sarki--aksak--sevdigim_cemalin--mahmud_celaleddin_pasa
N: makam= huseyni
N: form= sarki
N: usul= aksak = 9/8
M: 9/8
L: 1/16
K: C _2/4B ^3/4f  
Q: 1/4=132
%%MIDI tuningsystem comma53
de2e e2e2 egfg e4 d2 | ce dece dece dec4B2  | 
w:  ARANAĞME  |   | 
GABc ABcd Bcd=f edcB AG | AB cde2 dccB BAAB cde2  | 
w:   |   | 
de2e e2e2 egfg e4 d2 | ce dece dece dec4B2  | 
w:  ARANAĞME  |   | 
GABc ABcd Bcd=f edcB AG | AB cde2 dccB BAA4z2  | 
w:   |   | 
A4 c2d2 e8-e2 | d2 a2g2 f2g3fe4z2  | \
w:  *  Sev di ğim   |  ce mâ *  *  lin   | 
g3f e4 f3e defg a2 | 
w:  çün  | 
ag2fgf fee4e=f edcB  | A4 c2d2 e8-e2 | \
w:  ki  *  *  gö *  re *  mem   SAZ  |  *  Sev di ğim   | 
d2 a2g2 f2g3fe4z2  | 
w:  ce mâ *  *  lin   | 
g3f e4 f3e defg a2 | ag2fgf fee4e=f edcd  | 
w:  çün  |  ki  *  *  gö *  re *  mem   SAZ  | 
e4 d2e2 e8 d2 | g2 =f2e2 d2c2 B2A4B2  | \
w:  *  Çık ma sın   |  ha yâ *  *  lin   | 
G4 e2d2 c2B2 dcB2 BA | 
w:  dil_ i  *  şey *  dâ  | 
A6 d2c2 d2e3dcd  | e4 d2e2 e8 d2 | g2 =f2e2 d2c2 B2A4B2  | 
w:  dan   SAZ  |  *  Çık ma sın   |  ha yâ *  *  lin   | 
G4 e2d2 c2B2 dcB2 BA | A6 g2gf efg3fef  | \
w:  dil_ i  *  şey *  dâ  |  dan   SAZ  | 
g4 e2f2 g8 f2 | 
w:  *  Bas tı ğın   | 
g3fg2 a2g3fe4z2  | g3f e4 f3e defg a2 | \
w:  yer *  *  le re   |  yü  | 
ag2fgf fee4g3fef  | 
w:  züm  *  *  sü *  re *  mem   SAZ  | 
g4 e2f2 g8 f2 | g3fg2 a2g3fe4z2  | g3f e4 f3e defg a2 | 
w:  *  Bas tı ğın   |  yer *  *  le re   |  yü  | 
ag2fgf fee4e=f edcd  | e4 d2e2 e8 d2 | \
w:  züm  *  *  sü *  re *  mem   SAZ  |  *  Çık ma sın   | 
g2 =f2e2 d2c2 B2A4B2  | 
w:  ha yâ *  *  lin   | 
G4 e2d2 c2B2 dcB2 BA | A6 d2c2 d2e3dcd  | \
w:  dil_ i  *  şey *  dâ  |  dan   SAZ  | 
e4 d2e2 e8 d2 | 
w:  *  Çık ma sın   | 
g2 =f2e2 d2c2 B2A4B2  | G4 e2d2 c2B2 dcB2 BA | \
w:  ha yâ *  *  lin   |  dil_ i  *  şey *  dâ  | 
A6 e=fed cBA4z2  | 
w:  dan   SAZ KARAR  | 
|


